libs/ui/packages/crypto-icons/src/svg/VTHO.svg

<svg width="24" height="24" viewBox="0 0 24 24" fill="none">
    <path opacity="0.5"
        d="M14.7101 3.79352H16.9774L12.7159 9.48152H16.5401L7.40514 20.2065L10.3601 12.6285H7.02264L10.3879 3.79352H14.7101Z"
        fill="#82BE00" />
    <path
        d="M14.7101 3.79352H14.8466L11.0164 10.3283H14.5189L7.40514 20.2058L10.3601 12.6285H7.02264L10.3879 3.79352H14.7101Z"
        fill="#527826" />
</svg>

<svg width="24" height="24" viewBox="0 0 24 24" fill="none"><path fill="#82be00" d="M14.71 3.794h2.267l-4.261 5.688h3.824L7.405 20.206l2.955-7.577H7.023l3.365-8.835z" opacity=".5"/><path fill="#527826" d="M14.71 3.794h.137l-3.83 6.534h3.502l-7.114 9.878 2.955-7.577H7.023l3.365-8.835z"/></svg>
